; generated by PrusaSlicer 2.5.0+win64 on 2022-10-22 at 15:05:46 UTC


;
;

;
;
; 

; external perimeters extrusion width = 0.45mm
; perimeters extrusion width = 0.45mm
; infill extrusion width = 0.45mm
; solid infill extrusion width = 0.45mm
; top infill extrusion width = 0.40mm
; support material extrusion width = 0.40mm
; first layer extrusion width = 0.40mm

M73 P0 R4
M107 ; disable fan
;TYPE:Custom
G90 ; use absolute coordinates
M83 ; extruder relative mode
M204 S1250 T1250
M104 S225 ; set extruder temp
M140 S65 ; set bed temp
G28 ; home all
G1 Y1.0 Z0.3 F1000 ; move print head up
M190 S65 ; wait for bed temp
M109 S225 ; wait for extruder temp
G92 E0.0
; initial load
G1 X205.0 E19 F1000
G1 Y1.6
M73 P4 R4
G1 X5.0 E19 F1000
G92 E0.0
; intro line
G1 Y2.0 Z0.2 F1000
M73 P8 R4
G1 X65.0 E9.0 F1000
G1 X105.0 E12.5 F1000
G92 E0.0
G21 ; set units to millimeters
G90 ; use absolute coordinates
M83 ; use relative distances for extrusion
; Filament gcode
M107 ; disable fan
;LAYER_CHANGE
;Z:0.2
;HEIGHT:0.2
;BEFORE_LAYER_CHANGE
G92 E0.0
;0.2
M73 P10 R4
G1 E-10 F43200 ; retract
M73 P11 R4
G1 Z.5 F7800 ; lift Z
;AFTER_LAYER_CHANGE
;0.2
G1 X4.847 Y5.243 ; move to first skirt point
G1 Z.2 ; restore layer Z
G1 E10.2 F12000 ;  ; unretract
;TYPE:Skirt/Brim
;WIDTH:0.4
G1 F1200
G1 X5.992 Y4.186 E.04626 ; skirt
G1 X6.588 Y3.739 E.02211 ; skirt
G1 X7.351 Y3.249 E.02693 ; skirt
G1 X8.829 Y2.515 E.04901 ; skirt
G1 X9.527 Y2.255 E.02211 ; skirt
G1 X11.125 Y1.841 E.04901 ; skirt
G1 X13.219 Y1.643 E.06245 ; skirt
G1 X199.554 Y1.667 E5.53253 ; skirt
G1 X201.166 Y1.905 E.04839 ; skirt
M73 P15 R3
G1 X202.713 Y2.419 E.04839 ; skirt
G1 X204.575 Y3.494 E.06383 ; skirt
G1 X205.793 Y4.577 E.04839 ; skirt
G1 X206.806 Y5.854 E.04839 ; skirt
G1 X207.581 Y7.287 E.04838 ; skirt
G1 X208.095 Y8.834 E.04839 ; skirt
G1 X208.287 Y9.925 E.0329 ; skirt
G1 X208.357 Y11 E.03199 ; skirt
G1 X208.357 Y199 E5.58196 ; skirt
G1 X208.287 Y200.075 E.03199 ; skirt
M73 P18 R3
G1 X208.095 Y201.166 E.0329 ; skirt
G1 X207.581 Y202.713 E.04839 ; skirt
G1 X206.806 Y204.146 E.04838 ; skirt
G1 X205.793 Y205.423 E.04839 ; skirt
G1 X204.575 Y206.506 E.04839 ; skirt
G1 X202.713 Y207.581 E.06383 ; skirt
G1 X201.166 Y208.095 E.04839 ; skirt
M73 P19 R3
G1 X200.075 Y208.287 E.0329 ; skirt
G1 X199 Y208.357 E.03199 ; skirt
G1 X11 Y208.357 E5.58196 ; skirt
G1 X9.925 Y208.287 E.03199 ; skirt
M73 P22 R3
G1 X8.834 Y208.095 E.0329 ; skirt
G1 X7.287 Y207.581 E.04839 ; skirt
G1 X5.854 Y206.806 E.04838 ; skirt
G1 X4.577 Y205.793 E.04839 ; skirt
G1 X3.494 Y204.575 E.04839 ; skirt
G1 X2.419 Y202.713 E.06383 ; skirt
G1 X1.905 Y201.166 E.04839 ; skirt
G1 X1.713 Y200.075 E.0329 ; skirt
G1 X1.643 Y199 E.03199 ; skirt
G1 X1.643 Y13.219 E5.51608 ; skirt
G1 X1.841 Y11.125 E.06245 ; skirt
M73 P26 R3
G1 X2.255 Y9.527 E.04901 ; skirt
G1 X2.515 Y8.829 E.02211 ; skirt
G1 X3.249 Y7.351 E.04901 ; skirt
G1 X3.739 Y6.588 E.02693 ; skirt
G1 X4.803 Y5.284 E.04996 ; skirt
G1 E-6 F43200 ; retract
;WIPE_START
G1 F6240
G1 X5.228 Y4.892 E-3.8 ; wipe and retract
;WIPE_END
G1 E-.2 F43200 ; retract
G1 Z.7 F7800 ; lift Z
G1 X201.382 Y199.426 ; move to first perimeter point
G1 Z.2 ; restore layer Z
M73 P27 R3
G1 E10.2 F12000 ;  ; unretract
;TYPE:Perimeter
;WIDTH:0.399999
G1 F1200
G1 X201.35 Y199.626 E.006 ; perimeter
G1 X201.13 Y200.185 E.01786 ; perimeter
G1 X200.842 Y200.597 E.01491 ; perimeter
G1 X200.398 Y200.99 E.01761 ; perimeter
G1 X199.947 Y201.241 E.01533 ; perimeter
G1 X199.462 Y201.394 E.0151 ; perimeter
G1 X198.976 Y201.443 E.01451 ; perimeter
G1 X11.044 Y201.443 E5.57993 ; perimeter
G1 X10.374 Y201.35 E.02006 ; perimeter
M73 P30 R3
G1 X9.815 Y201.13 E.01786 ; perimeter
G1 X9.403 Y200.842 E.01491 ; perimeter
G1 X9.01 Y200.398 E.01761 ; perimeter
G1 X8.759 Y199.947 E.01533 ; perimeter
G1 X8.606 Y199.462 E.0151 ; perimeter
G1 X8.557 Y198.976 E.01451 ; perimeter
G1 X8.557 Y13.239 E5.51476 ; perimeter
G1 X8.606 Y12.556 E.02034 ; perimeter
M73 P34 R3
G1 X8.747 Y11.906 E.01974 ; perimeter
G1 X8.98 Y11.283 E.01974 ; perimeter
G1 X9.298 Y10.699 E.01974 ; perimeter
G1 X9.697 Y10.167 E.01974 ; perimeter
G1 X10.167 Y9.697 E.01974 ; perimeter
G1 X10.699 Y9.298 E.01974 ; perimeter
G1 X11.283 Y8.98 E.01974 ; perimeter
G1 X11.906 Y8.747 E.01974 ; perimeter
G1 X12.556 Y8.606 E.01974 ; perimeter
G1 X13.239 Y8.557 E.02034 ; perimeter
G1 X198.956 Y8.557 E5.51419 ; perimeter
G1 X199.626 Y8.65 E.02006 ; perimeter
M73 P37 R2
G1 X200.185 Y8.87 E.01786 ; perimeter
G1 X200.597 Y9.158 E.01491 ; perimeter
G1 X200.99 Y9.602 E.01761 ; perimeter
G1 X201.241 Y10.053 E.01533 ; perimeter
G1 X201.394 Y10.538 E.0151 ; perimeter
G1 X201.443 Y11.044 E.01508 ; perimeter
G1 X201.443 Y198.956 E5.57936 ; perimeter
G1 X201.391 Y199.367 E.01228 ; perimeter
M73 P41 R2
G1 X201.757 Y199.486 F7800 ; move to first perimeter point
;TYPE:External perimeter
G1 F1200
G1 X201.601 Y200.021 E.01655 ; perimeter
G1 X201.335 Y200.527 E.01694 ; perimeter
G1 X200.969 Y200.975 E.01718 ; perimeter
G1 X200.603 Y201.282 E.0142 ; perimeter
G1 X200.098 Y201.565 E.01718 ; perimeter
G1 X199.554 Y201.738 E.01694 ; perimeter
G1 X198.991 Y201.8 E.01681 ; perimeter
G1 X11.044 Y201.8 E5.5804 ; perimeter
G1 X10.514 Y201.757 E.01578 ; perimeter
M73 P44 R2
G1 X9.979 Y201.601 E.01655 ; perimeter
G1 X9.473 Y201.335 E.01694 ; perimeter
G1 X9.025 Y200.969 E.01718 ; perimeter
G1 X8.718 Y200.603 E.0142 ; perimeter
G1 X8.435 Y200.098 E.01718 ; perimeter
G1 X8.262 Y199.554 E.01694 ; perimeter
G1 X8.2 Y198.991 E.01681 ; perimeter
G1 X8.2 Y13.226 E5.5156 ; perimeter
G1 X8.252 Y12.505 E.02147 ; perimeter
M73 P48 R2
G1 X8.404 Y11.805 E.02126 ; perimeter
G1 X8.654 Y11.134 E.02126 ; perimeter
G1 X8.997 Y10.506 E.02126 ; perimeter
G1 X9.426 Y9.933 E.02126 ; perimeter
G1 X9.933 Y9.426 E.02126 ; perimeter
G1 X10.506 Y8.997 E.02126 ; perimeter
G1 X11.134 Y8.654 E.02126 ; perimeter
G1 X11.805 Y8.404 E.02126 ; perimeter
G1 X12.505 Y8.252 E.02126 ; perimeter
G1 X13.226 Y8.2 E.02147 ; perimeter
G1 X198.956 Y8.2 E5.51456 ; perimeter
G1 X199.636 Y8.283 E.02032 ; perimeter
M73 P51 R2
G1 X200.182 Y8.474 E.01718 ; perimeter
G1 X200.596 Y8.713 E.0142 ; perimeter
G1 X201.035 Y9.091 E.01718 ; perimeter
G1 X201.384 Y9.543 E.01694 ; perimeter
G1 X201.601 Y9.979 E.01448 ; perimeter
G1 X201.757 Y10.514 E.01653 ; perimeter
G1 X201.8 Y11.044 E.01578 ; perimeter
G1 X201.8 Y198.956 E5.57936 ; perimeter
G1 X201.762 Y199.426 E.014 ; perimeter
M73 P55 R2
G1 X201.379 Y199.617 F7800 ; move inwards before travel
G1 X200.518 Y199.292 ; move to first perimeter point
;TYPE:Perimeter
G1 F1200
G1 X200.509 Y199.361 E.00207 ; perimeter
G1 X200.295 Y199.855 E.016 ; perimeter
G1 X199.924 Y200.246 E.016 ; perimeter
G1 X199.443 Y200.487 E.016 ; perimeter
G1 X198.956 Y200.557 E.01458 ; perimeter
G1 X10.999 Y200.557 E5.58068 ; perimeter
G1 X10.639 Y200.509 E.01077 ; perimeter
M73 P58 R1
G1 X10.145 Y200.295 E.016 ; perimeter
G1 X9.754 Y199.924 E.016 ; perimeter
G1 X9.513 Y199.443 E.016 ; perimeter
G1 X9.443 Y198.956 E.01458 ; perimeter
G1 X9.443 Y13.218 E5.5148 ; perimeter
G1 X9.49 Y12.658 E.01669 ; perimeter
M73 P61 R1
G1 X9.609 Y12.148 E.01555 ; perimeter
G1 X9.794 Y11.659 E.01553 ; perimeter
G1 X10.04 Y11.197 E.01553 ; perimeter
G1 X10.351 Y10.764 E.01581 ; perimeter
M73 P62 R1
G1 X10.757 Y10.358 E.01707 ; perimeter
G1 X11.197 Y10.04 E.01611 ; perimeter
G1 X11.659 Y9.794 E.01553 ; perimeter
G1 X12.148 Y9.609 E.01553 ; perimeter
G1 X12.658 Y9.49 E.01555 ; perimeter
G1 X13.255 Y9.443 E.01777 ; perimeter
G1 X199.001 Y9.443 E5.51504 ; perimeter
G1 X199.361 Y9.491 E.01077 ; perimeter
M73 P65 R1
G1 X199.855 Y9.705 E.016 ; perimeter
G1 X200.246 Y10.076 E.016 ; perimeter
G1 X200.487 Y10.557 E.016 ; perimeter
G1 X200.557 Y11.044 E.01458 ; perimeter
G1 X200.557 Y199.001 E5.58068 ; perimeter
G1 X200.526 Y199.232 E.00692 ; perimeter
M73 P68 R1
G1 X200.174 Y199.238 F7800 ; move to first perimeter point
;TYPE:External perimeter
G1 F1200
G1 X200.021 Y199.626 E.01235 ; perimeter
G1 X199.746 Y199.937 E.01235 ; perimeter
G1 X199.38 Y200.136 E.01235 ; perimeter
G1 X198.956 Y200.2 E.01274 ; perimeter
G1 X10.999 Y200.2 E5.58068 ; perimeter
G1 X10.762 Y200.174 E.0071 ; perimeter
M73 P72 R1
G1 X10.374 Y200.021 E.01235 ; perimeter
G1 X10.063 Y199.746 E.01235 ; perimeter
G1 X9.864 Y199.38 E.01235 ; perimeter
G1 X9.8 Y198.956 E.01274 ; perimeter
G1 X9.8 Y13.218 E5.5148 ; perimeter
G1 X9.846 Y12.689 E.01577 ; perimeter
M73 P75 R1
G1 X10.001 Y12.064 E.01911 ; perimeter
G1 X10.251 Y11.523 E.01769 ; perimeter
G1 X10.59 Y11.034 E.01769 ; perimeter
G1 X11.01 Y10.61 E.01769 ; perimeter
G1 X11.496 Y10.266 E.01769 ; perimeter
G1 X12.035 Y10.012 E.01769 ; perimeter
G1 X12.61 Y9.855 E.01769 ; perimeter
G1 X13.255 Y9.8 E.01921 ; perimeter
G1 X199.001 Y9.8 E5.51504 ; perimeter
G1 X199.238 Y9.826 E.0071 ; perimeter
M73 P79 R0
G1 X199.626 Y9.979 E.01235 ; perimeter
G1 X199.937 Y10.254 E.01235 ; perimeter
G1 X200.136 Y10.62 E.01235 ; perimeter
G1 X200.2 Y11.044 E.01274 ; perimeter
G1 X200.2 Y199.001 E5.58068 ; perimeter
G1 X200.18 Y199.179 E.00531 ; perimeter
M73 P82 R0
G1 X200.46 Y199.518 F7800 ; move inwards before travel
G1 X200.968 Y199.347 ; move to first perimeter point
;TYPE:Perimeter
;WIDTH:0.56779
G1 F1200
G1 X200.802 Y199.845 E.02289 ; perimeter
G1 X200.633 Y200.139 E.0148 ; perimeter
G1 X200.284 Y200.531 E.02289 ; perimeter
G1 X199.838 Y200.806 E.0229 ; perimeter
G1 X199.519 Y200.922 E.01479 ; perimeter
;WIDTH:0.571682
G1 X198.956 Y201 E.02499 ; perimeter
G1 X11.044 Y201 E8.26191 ; perimeter
G1 X10.653 Y200.968 E.01723 ; perimeter
;WIDTH:0.567794
M73 P86 R0
G1 X10.155 Y200.802 E.02289 ; perimeter
G1 X9.861 Y200.633 E.0148 ; perimeter
G1 X9.469 Y200.284 E.02289 ; perimeter
G1 X9.194 Y199.838 E.0229 ; perimeter
G1 X9.078 Y199.519 E.01479 ; perimeter
;WIDTH:0.571684
G1 X9 Y198.956 E.02499 ; perimeter
G1 X9.006 Y13.133 E8.17008 ; perimeter
;WIDTH:0.568716
G1 X9.054 Y12.571 E.02465 ; perimeter
;WIDTH:0.580176
M73 P89 R0
G1 X9.177 Y12.032 E.02469 ; perimeter
;WIDTH:0.581234
G1 X9.388 Y11.469 E.0269 ; perimeter
G1 X9.675 Y10.941 E.0269 ; perimeter
;WIDTH:0.578058
G1 X10.045 Y10.444 E.02757 ; perimeter
;WIDTH:0.5708
G1 X10.457 Y10.032 E.0256 ; perimeter
;WIDTH:0.578058
G1 X10.941 Y9.675 E.02676 ; perimeter
;WIDTH:0.581234
G1 X11.469 Y9.388 E.0269 ; perimeter
G1 X12.032 Y9.177 E.0269 ; perimeter
;WIDTH:0.580176
G1 X12.619 Y9.047 E.02686 ; perimeter
;WIDTH:0.574882
G1 X13.255 Y9 E.02819 ; perimeter
;WIDTH:0.57168
G1 X198.956 Y9 E8.16467 ; perimeter
G1 X199.347 Y9.032 E.01723 ; perimeter
;WIDTH:0.56779
M73 P92 R0
G1 X199.845 Y9.198 E.02289 ; perimeter
G1 X200.139 Y9.367 E.0148 ; perimeter
G1 X200.531 Y9.716 E.02289 ; perimeter
G1 X200.806 Y10.162 E.0229 ; perimeter
G1 X200.922 Y10.481 E.01479 ; perimeter
;WIDTH:0.571682
M73 P93 R0
G1 X201 Y11.044 E.02499 ; perimeter
G1 X201 Y198.956 E8.26191 ; perimeter
G1 X200.973 Y199.287 E.0146 ; perimeter
M73 P96 R0
G1 E-6 F43200 ; retract
;WIPE_START
G1 F6240;_WIPE
G1 X200.804 Y199.84 E-3.8 ; wipe and retract
;WIPE_END
G1 E-.2 F43200 ; retract
G1 Z.7 F7800 ; lift Z
M107 ; disable fan
;TYPE:Custom
; Filament-specific end gcode
G1 E-1.0 F2100 ; retract
G92 E0.0
G1 Z30.2 E-34.0 F720 ; move print head up & retract filament
G4 ; wait
M104 S0 ; turn off temperature
M140 S0 ; turn off heatbed
M107 ; turn off fan
G1 X0 Y105 F3000 ; park print head
M84 ; disable motors
M73 P100 R0
; filament used [mm] = 148.69
; filament used [cm3] = 0.36
; filament used [g] = 0.44
; filament cost = 0.02
; total filament used [g] = 0.44
; total filament cost = 0.02
; estimated printing time (normal mode) = 4m 36s

; prusaslicer_config = begin
; avoid_crossing_perimeters = 0
; avoid_crossing_perimeters_max_detour = 0
; bed_custom_model = 
; bed_custom_texture = 
; bed_shape = 0x0,210x0,210x210,0x210
; bed_temperature = 35
; before_layer_gcode = ;BEFORE_LAYER_CHANGE\nG92 E0.0\n;[layer_z]
; between_objects_gcode = 
; bottom_fill_pattern = monotonic
; bottom_solid_layers = 5
; bottom_solid_min_thickness = 0
; bridge_acceleration = 0
; bridge_angle = 0
; bridge_fan_speed = 75
; bridge_flow_ratio = 1
; bridge_speed = 60
; brim_separation = 0
; brim_type = outer_only
; brim_width = 0
; clip_multipart_objects = 1
; color_change_gcode = M600
; compatible_printers_condition_cummulative = ;"printer_notes=~/.*PRINTER_VENDOR_ANYCUBIC.*/ and printer_notes=~/.*PRINTER_MODEL_I3_MEGA.*/"
; complete_objects = 0
; cooling = 1
; cooling_tube_length = 5
; cooling_tube_retraction = 91.5
; default_acceleration = 0
; default_filament_profile = "Generic PLA @MEGA"
; default_print_profile = 0.15mm QUALITY @MEGA
; deretract_speed = 200
; disable_fan_first_layers = 3
; dont_support_bridges = 1
; draft_shield = disabled
; duplicate_distance = 6
; elefant_foot_compensation = 0
; end_filament_gcode = "; Filament-specific end gcode"
; end_gcode = G1 E-1.0 F2100 ; retract\nG92 E0.0\nG1{if max_layer_z < max_print_height} Z{z_offset+min(max_layer_z+30, max_print_height)}{endif} E-34.0 F720 ; move print head up & retract filament\nG4 ; wait\nM104 S0 ; turn off temperature\nM140 S0 ; turn off heatbed\nM107 ; turn off fan\nG1 X0 Y105 F3000 ; park print head\nM84 ; disable motors
; ensure_vertical_shell_thickness = 0
; external_perimeter_extrusion_width = 0
; external_perimeter_speed = 50%
; external_perimeters_first = 0
; extra_loading_move = -2
; extra_perimeters = 1
; extruder_clearance_height = 80
; extruder_clearance_radius = 80
; extruder_colour = #808080
; extruder_offset = 0x0
; extrusion_axis = E
; extrusion_multiplier = 1
; extrusion_width = 0
; fan_always_on = 1
; fan_below_layer_time = 100
; filament_colour = #FF3232
; filament_cooling_final_speed = 3.4
; filament_cooling_initial_speed = 2.2
; filament_cooling_moves = 4
; filament_cost = 50
; filament_density = 1.24
; filament_diameter = 1.75
; filament_load_time = 0
; filament_loading_speed = 28
; filament_loading_speed_start = 3
; filament_max_volumetric_speed = 10
; filament_minimal_purge_on_wipe_tower = 15
; filament_notes = ""
; filament_ramming_parameters = "120 100 6.6 6.8 7.2 7.6 7.9 8.2 8.7 9.4 9.9 10.0| 0.05 6.6 0.45 6.8 0.95 7.8 1.45 8.3 1.95 9.7 2.45 10 2.95 7.6 3.45 7.6 3.95 7.6 4.45 7.6 4.95 7.6"
; filament_settings_id = "Generic PLA @MEGA - Copy"
; filament_soluble = 0
; filament_spool_weight = 1000
; filament_toolchange_delay = 0
; filament_type = PLA
; filament_unload_time = 0
; filament_unloading_speed = 90
; filament_unloading_speed_start = 100
; filament_vendor = Generic
; fill_angle = 45
; fill_density = 25%
; fill_pattern = gyroid
; first_layer_acceleration = 0
; first_layer_acceleration_over_raft = 0
; first_layer_bed_temperature = 65
; first_layer_extrusion_width = 200%
; first_layer_height = 0.2
; first_layer_speed = 20
; first_layer_speed_over_raft = 30
; first_layer_temperature = 225
; full_fan_speed_layer = 0
; fuzzy_skin = none
; fuzzy_skin_point_dist = 0.8
; fuzzy_skin_thickness = 0.3
; gap_fill_enabled = 1
; gap_fill_speed = 20
; gcode_comments = 1
; gcode_flavor = marlin
; gcode_label_objects = 0
; gcode_resolution = 0.0125
; gcode_substitutions = 
; high_current_on_filament_swap = 0
; host_type = octoprint
; infill_acceleration = 0
; infill_anchor = 600%
; infill_anchor_max = 50
; infill_every_layers = 1
; infill_extruder = 1
; infill_extrusion_width = 0
; infill_first = 0
; infill_only_where_needed = 0
; infill_overlap = 25%
; infill_speed = 80
; inherits_cummulative = ;"Generic PLA @MEGA";"Anycubic i3 Mega"
; interface_shells = 0
; ironing = 0
; ironing_flowrate = 15%
; ironing_spacing = 0.1
; ironing_speed = 15
; ironing_type = top
; layer_gcode = ;AFTER_LAYER_CHANGE\n;[layer_z]
; layer_height = 0.25
; machine_limits_usage = time_estimate_only
; machine_max_acceleration_e = 10000
; machine_max_acceleration_extruding = 1250
; machine_max_acceleration_retracting = 1250
; machine_max_acceleration_travel = 1500,1250
; machine_max_acceleration_x = 3000
; machine_max_acceleration_y = 2000
; machine_max_acceleration_z = 60
; machine_max_feedrate_e = 60
; machine_max_feedrate_x = 500
; machine_max_feedrate_y = 500
; machine_max_feedrate_z = 6
; machine_max_jerk_e = 5
; machine_max_jerk_x = 10
