; generated by PrusaSlicer 2.5.0+win64 on 2022-10-14 at 10:00:02 UTC


;
;

;
;
; 

; external perimeters extrusion width = 0.90mm
; perimeters extrusion width = 0.90mm
; infill extrusion width = 0.90mm
; solid infill extrusion width = 0.90mm
; top infill extrusion width = 0.80mm
; support material extrusion width = 0.80mm
; first layer extrusion width = 0.40mm

M73 P0 R495
M107 ; disable fan
;TYPE:Custom
G90 ; use absolute coordinates
M83 ; extruder relative mode
M204 S1250 T1250
M104 S225 ; set extruder temp
M140 S65 ; set bed temp
G28 ; home all
G1 Y1.0 Z0.3 F1000 ; move print head up
M190 S65 ; wait for bed temp
M109 S225 ; wait for extruder temp
G92 E0.0
; initial load
G1 X205.0 E19 F1000
G1 Y1.6
G1 X5.0 E19 F1000
G92 E0.0
; intro line
G1 Y2.0 Z0.2 F1000
G1 X65.0 E9.0 F1000
G1 X105.0 E12.5 F1000
G92 E0.0
G21 ; set units to millimeters
G90 ; use absolute coordinates
M83 ; use relative distances for extrusion
; Filament gcode
M107 ; disable fan
;LAYER_CHANGE
;Z:0.2
;HEIGHT:0.2
;BEFORE_LAYER_CHANGE
G92 E0.0
;0.2
M73 P0 R494
G1 E-6 F7200 ; retract
G1 Z.075 F7800 ; lift Z
G1 Z.2 ; move to next layer (0)
;AFTER_LAYER_CHANGE
;0.2
G1 Z.275 ; lift Z
G1 X40.998 Y41.541 ; move to first skirt point
G1 Z.2 ; restore layer Z
G1 E6.1 F6000 ;  ; unretract
;TYPE:Skirt/Brim
;WIDTH:0.4
G1 F1800
G1 X42.602 Y40.107 E.0639 ; skirt
G1 X43.449 Y39.522 E.03056 ; skirt
G1 X44.664 Y38.855 E.04114 ; skirt
G1 X45.945 Y38.327 E.04114 ; skirt
G1 X47.223 Y37.959 E.0395 ; skirt
G1 X48.588 Y37.724 E.04114 ; skirt
G1 X49.601 Y37.654 E.03015 ; skirt
G1 X160.271 Y37.648 E3.28591 ; skirt
G1 X162.373 Y37.877 E.06278 ; skirt
G1 X164.441 Y38.473 E.06391 ; skirt
G1 X165.387 Y38.879 E.03056 ; skirt
G1 X166.598 Y39.552 E.04114 ; skirt
G1 X167.683 Y40.322 E.0395 ; skirt
G1 X168.459 Y40.997 E.03055 ; skirt
G1 X169.893 Y42.602 E.06391 ; skirt
G1 X170.478 Y43.45 E.03057 ; skirt
G1 X171.145 Y44.664 E.04113 ; skirt
G1 X171.654 Y45.892 E.03947 ; skirt
G1 X171.952 Y46.878 E.03058 ; skirt
G1 X172.313 Y49 E.06391 ; skirt
G1 X172.352 Y160.271 E3.30378 ; skirt
G1 X172.123 Y162.373 E.06278 ; skirt
G1 X171.527 Y164.441 E.06391 ; skirt
G1 X171.121 Y165.387 E.03056 ; skirt
G1 X170.448 Y166.598 E.04114 ; skirt
G1 X169.678 Y167.683 E.0395 ; skirt
G1 X169.002 Y168.459 E.03056 ; skirt
G1 X167.997 Y169.415 E.04119 ; skirt
G1 X166.895 Y170.25 E.04107 ; skirt
G1 X165.011 Y171.291 E.06391 ; skirt
G1 X164.055 Y171.673 E.03055 ; skirt
G1 X162.722 Y172.054 E.04116 ; skirt
G1 X161.412 Y172.276 E.03948 ; skirt
G1 X160.042 Y172.356 E.04073 ; skirt
G1 X49.729 Y172.352 E3.27533 ; skirt
G1 X47.627 Y172.123 E.06278 ; skirt
G1 X45.559 Y171.527 E.06391 ; skirt
G1 X44.613 Y171.121 E.03056 ; skirt
G1 X43.402 Y170.448 E.04114 ; skirt
G1 X42.317 Y169.678 E.0395 ; skirt
G1 X41.541 Y169.002 E.03056 ; skirt
G1 X40.585 Y167.997 E.04121 ; skirt
G1 X39.75 Y166.895 E.04105 ; skirt
G1 X38.709 Y165.011 E.06391 ; skirt
G1 X38.327 Y164.055 E.03055 ; skirt
G1 X37.946 Y162.722 E.04116 ; skirt
G1 X37.724 Y161.411 E.03947 ; skirt
G1 X37.644 Y160.042 E.04073 ; skirt
G1 X37.648 Y49.729 E3.27533 ; skirt
G1 X37.877 Y47.627 E.06278 ; skirt
G1 X38.473 Y45.559 E.06391 ; skirt
G1 X38.879 Y44.613 E.03056 ; skirt
G1 X39.552 Y43.402 E.04114 ; skirt
G1 X40.322 Y42.317 E.0395 ; skirt
G1 X40.919 Y41.632 E.027 ; skirt
G1 E-3.6 F7200 ; retract
;WIPE_START
G1 F6240
G1 X42.461 Y40.235 E-2.28 ; wipe and retract
;WIPE_END
G1 E-.12 F7200 ; retract
G1 Z.275 F7800 ; lift Z
G1 X46.019 Y46.159 ; move to first brim point
G1 Z.2 ; restore layer Z
G1 E6.1 F6000 ;  ; unretract
G1 F1800
G1 X46.565 Y45.66 E.02195 ; brim
G1 X47.072 Y45.302 E.01843 ; brim
G1 X47.617 Y45.004 E.01844 ; brim
G1 X48.172 Y44.775 E.01785 ; brim
G1 X48.769 Y44.603 E.01844 ; brim
G1 X49.381 Y44.499 E.01843 ; brim
G1 X49.995 Y44.464 E.01827 ; brim
G1 X160.013 Y44.465 E3.26657 ; brim
G1 X160.62 Y44.5 E.01806 ; brim
G1 X161.232 Y44.604 E.01844 ; brim
G1 X161.829 Y44.775 E.01843 ; brim
G1 X162.384 Y45.004 E.01782 ; brim
G1 X162.962 Y45.324 E.01962 ; brim
G1 X163.46 Y45.68 E.01817 ; brim
G1 X163.914 Y46.086 E.01809 ; brim
G1 X164.315 Y46.533 E.01784 ; brim
G1 X164.671 Y47.031 E.01817 ; brim
G1 X164.996 Y47.616 E.01987 ; brim
G1 X165.231 Y48.19 E.01842 ; brim
G1 X165.396 Y48.768 E.01783 ; brim
G1 X165.498 Y49.36 E.01785 ; brim
G1 X165.535 Y49.975 E.01828 ; brim
G1 X165.536 Y160.005 E3.26694 ; brim
G1 X165.501 Y160.619 E.01827 ; brim
G1 X165.401 Y161.212 E.01784 ; brim
G1 X165.218 Y161.847 E.01962 ; brim
G1 X164.987 Y162.401 E.01782 ; brim
G1 X164.687 Y162.944 E.01843 ; brim
G1 X164.333 Y163.444 E.01819 ; brim
G1 X163.929 Y163.899 E.01807 ; brim
G1 X163.435 Y164.34 E.01965 ; brim
G1 X162.928 Y164.698 E.01843 ; brim
G1 X162.383 Y164.996 E.01844 ; brim
G1 X161.828 Y165.225 E.01785 ; brim
G1 X161.231 Y165.397 E.01844 ; brim
G1 X160.619 Y165.501 E.01843 ; brim
G1 X160.005 Y165.536 E.01827 ; brim
G1 X49.995 Y165.536 E3.26633 ; brim
G1 X49.381 Y165.501 E.01827 ; brim
G1 X48.788 Y165.401 E.01784 ; brim
G1 X48.153 Y165.218 E.01962 ; brim
G1 X47.599 Y164.987 E.01782 ; brim
G1 X47.056 Y164.687 E.01843 ; brim
G1 X46.556 Y164.333 E.01819 ; brim
G1 X46.101 Y163.929 E.01807 ; brim
G1 X45.66 Y163.435 E.01965 ; brim
G1 X45.302 Y162.928 E.01843 ; brim
G1 X45.004 Y162.383 E.01844 ; brim
G1 X44.775 Y161.828 E.01785 ; brim
G1 X44.603 Y161.231 E.01844 ; brim
G1 X44.499 Y160.619 E.01843 ; brim
G1 X44.464 Y160.005 E.01827 ; brim
G1 X44.464 Y49.995 E3.26633 ; brim
G1 X44.499 Y49.381 E.01827 ; brim
G1 X44.599 Y48.788 E.01784 ; brim
G1 X44.782 Y48.153 E.01962 ; brim
G1 X45.013 Y47.599 E.01782 ; brim
G1 X45.313 Y47.056 E.01843 ; brim
G1 X45.667 Y46.556 E.01819 ; brim
G1 X45.94 Y46.249 E.0122 ; brim
G1 X46.207 Y46.486 F7800 ; move to first brim point
G1 F1800
G1 X46.331 Y46.346 E.00557 ; brim
G1 X46.779 Y45.945 E.01783 ; brim
G1 X47.253 Y45.61 E.01724 ; brim
G1 X47.762 Y45.33 E.01724 ; brim
G1 X48.299 Y45.109 E.01724 ; brim
G1 X48.857 Y44.949 E.01724 ; brim
G1 X49.43 Y44.853 E.01725 ; brim
G1 X50 Y44.821 E.01695 ; brim
G1 X160.008 Y44.822 E3.26628 ; brim
G1 X160.589 Y44.855 E.0173 ; brim
G1 X161.162 Y44.954 E.01724 ; brim
G1 X161.72 Y45.116 E.01725 ; brim
G1 X162.238 Y45.33 E.01665 ; brim
G1 X162.763 Y45.621 E.01783 ; brim
G1 X163.229 Y45.953 E.01699 ; brim
G1 X163.669 Y46.345 E.01749 ; brim
G1 X164.042 Y46.764 E.01666 ; brim
G1 X164.375 Y47.23 E.017 ; brim
G1 X164.67 Y47.762 E.01806 ; brim
G1 X164.891 Y48.299 E.01724 ; brim
G1 X165.046 Y48.838 E.01666 ; brim
G1 X165.145 Y49.411 E.01725 ; brim
G1 X165.178 Y49.99 E.01724 ; brim
G1 X165.179 Y160 E3.26634 ; brim
G1 X165.147 Y160.57 E.01695 ; brim
G1 X165.051 Y161.143 E.01724 ; brim
G1 X164.884 Y161.72 E.01783 ; brim
G1 X164.67 Y162.238 E.01665 ; brim
G1 X164.39 Y162.747 E.01725 ; brim
G1 X164.059 Y163.214 E.017 ; brim
G1 X163.669 Y163.654 E.01746 ; brim
G1 X163.221 Y164.055 E.01783 ; brim
G1 X162.747 Y164.39 E.01724 ; brim
G1 X162.238 Y164.67 E.01724 ; brim
G1 X161.701 Y164.891 E.01724 ; brim
G1 X161.143 Y165.051 E.01724 ; brim
G1 X160.57 Y165.147 E.01725 ; brim
G1 X160 Y165.179 E.01695 ; brim
G1 X50 Y165.179 E3.26604 ; brim
G1 X49.43 Y165.147 E.01695 ; brim
G1 X48.857 Y165.051 E.01724 ; brim
G1 X48.28 Y164.884 E.01783 ; brim
G1 X47.762 Y164.67 E.01665 ; brim
G1 X47.253 Y164.39 E.01725 ; brim
G1 X46.786 Y164.059 E.017 ; brim
G1 X46.346 Y163.669 E.01746 ; brim
G1 X45.945 Y163.221 E.01783 ; brim
G1 X45.61 Y162.747 E.01724 ; brim
G1 X45.33 Y162.238 E.01724 ; brim
G1 X45.109 Y161.701 E.01724 ; brim
G1 X44.949 Y161.143 E.01724 ; brim
G1 X44.853 Y160.57 E.01725 ; brim
G1 X44.821 Y160 E.01695 ; brim
G1 X44.821 Y50 E3.26605 ; brim
G1 X44.853 Y49.43 E.01695 ; brim
G1 X44.949 Y48.857 E.01724 ; brim
G1 X45.116 Y48.28 E.01783 ; brim
G1 X45.33 Y47.762 E.01665 ; brim
G1 X45.61 Y47.253 E.01725 ; brim
G1 X45.941 Y46.786 E.017 ; brim
G1 X46.127 Y46.576 E.00834 ; brim
G1 E-3.6 F7200 ; retract
