; generated by PrusaSlicer 2.5.0+win64 on 2022-10-14 at 12:30:25 UTC


;
;

;
;
; 

; external perimeters extrusion width = 0.90mm
; perimeters extrusion width = 0.90mm
; infill extrusion width = 0.90mm
; solid infill extrusion width = 0.90mm
; top infill extrusion width = 0.80mm
; support material extrusion width = 0.80mm
; first layer extrusion width = 0.40mm

M73 P0 R2
M107 ; disable fan
;TYPE:Custom
G90 ; use absolute coordinates
M83 ; extruder relative mode
M204 S1250 T1250
M104 S225 ; set extruder temp
M140 S65 ; set bed temp
G28 ; home all
G1 Y1.0 Z0.3 F1000 ; move print head up
M190 S65 ; wait for bed temp
M109 S225 ; wait for extruder temp
G92 E0.0
; initial load
G1 X205.0 E19 F1000
G1 Y1.6
M73 P8 R2
G1 X5.0 E19 F1000
G92 E0.0
; intro line
G1 Y2.0 Z0.2 F1000
M73 P17 R1
G1 X65.0 E9.0 F1000
G1 X105.0 E12.5 F1000
G92 E0.0
G21 ; set units to millimeters
G90 ; use absolute coordinates
M83 ; use relative distances for extrusion
; Filament gcode
M107 ; disable fan
;LAYER_CHANGE
;Z:0.2
;HEIGHT:0.2
;BEFORE_LAYER_CHANGE
G92 E0.0
;0.2
M73 P20 R1
G1 E-10 F21600 ; retract
M73 P21 R1
G1 Z.1 F7800 ; lift Z
G1 Z.2 ; move to next layer (0)
;AFTER_LAYER_CHANGE
;0.2
G1 Z.3 ; lift Z
M73 P22 R1
G1 X11.744 Y12.202 ; move to first skirt point
G1 Z.2 ; restore layer Z
G1 E10.2 F12000 ;  ; unretract
;TYPE:Skirt/Brim
;WIDTH:0.4
G1 F1800
G1 X12.574 Y11.408 E.03411 ; skirt
G1 X13.424 Y10.741 E.03208 ; skirt
G1 X14.425 Y10.105 E.0352 ; skirt
G1 X15.373 Y9.629 E.03152 ; skirt
G1 X16.41 Y9.225 E.03305 ; skirt
G1 X17.483 Y8.925 E.03307 ; skirt
G1 X18.564 Y8.734 E.03259 ; skirt
M73 P23 R1
G1 X19.718 Y8.646 E.03434 ; skirt
G1 X180.273 Y8.646 E4.76708 ; skirt
G1 X182.393 Y8.898 E.0634 ; skirt
M73 P26 R1
G1 X183.462 Y9.183 E.03286 ; skirt
G1 X184.456 Y9.554 E.03151 ; skirt
G1 X185.417 Y10.018 E.03169 ; skirt
G1 X186.336 Y10.574 E.03188 ; skirt
G1 X187.984 Y11.924 E.06325 ; skirt
M73 P27 R1
G1 X188.734 Y12.741 E.03292 ; skirt
G1 X189.357 Y13.563 E.03065 ; skirt
G1 X190.389 Y15.412 E.06285 ; skirt
G1 X191.05 Y17.374 E.06149 ; skirt
G1 X191.241 Y18.379 E.03036 ; skirt
G1 X191.346 Y19.5 E.03343 ; skirt
G1 X191.354 Y180.273 E4.77355 ; skirt
G1 X191.117 Y182.322 E.06125 ; skirt
M73 P31 R1
G1 X190.49 Y184.352 E.06308 ; skirt
G1 X189.539 Y186.164 E.06078 ; skirt
G1 X188.25 Y187.805 E.06193 ; skirt
G1 X187.426 Y188.592 E.03385 ; skirt
G1 X186.508 Y189.308 E.03457 ; skirt
G1 X185.501 Y189.936 E.03524 ; skirt
G1 X184.489 Y190.432 E.03347 ; skirt
G1 X183.379 Y190.843 E.03513 ; skirt
G1 X182.322 Y191.117 E.03244 ; skirt
G1 X181.215 Y191.292 E.03327 ; skirt
G1 X180.087 Y191.357 E.03353 ; skirt
G1 X19.728 Y191.354 E4.76129 ; skirt
G1 X17.666 Y191.115 E.06162 ; skirt
M73 P35 R1
G1 X15.648 Y190.49 E.06271 ; skirt
G1 X13.855 Y189.551 E.0601 ; skirt
G1 X12.195 Y188.25 E.06261 ; skirt
G1 X11.408 Y187.426 E.03385 ; skirt
G1 X10.658 Y186.458 E.03637 ; skirt
G1 X10.033 Y185.444 E.03537 ; skirt
G1 X9.568 Y184.488 E.03155 ; skirt
G1 X9.157 Y183.379 E.03511 ; skirt
G1 X8.883 Y182.322 E.03244 ; skirt
G1 X8.708 Y181.215 E.03327 ; skirt
G1 X8.643 Y180.087 E.03353 ; skirt
G1 X8.646 Y19.728 E4.76129 ; skirt
G1 X8.885 Y17.666 E.06162 ; skirt
M73 P39 R1
G1 X9.502 Y15.667 E.06212 ; skirt
G1 X10.449 Y13.855 E.0607 ; skirt
G1 X11.67 Y12.296 E.05878 ; skirt
G1 E-6 F21600 ; retract
;WIPE_START
G1 F6240
G1 X12.494 Y11.486 E-3.8 ; wipe and retract
;WIPE_END
