; generated by PrusaSlicer 2.5.0+win64 on 2022-10-14 at 10:08:29 UTC


;
;

;
;
; 

; external perimeters extrusion width = 0.90mm
; perimeters extrusion width = 0.90mm
; infill extrusion width = 0.90mm
; solid infill extrusion width = 0.90mm
; top infill extrusion width = 0.80mm
; support material extrusion width = 0.80mm
; first layer extrusion width = 0.40mm

M73 P0 R2
M107 ; disable fan
;TYPE:Custom
G90 ; use absolute coordinates
M83 ; extruder relative mode
M204 S1250 T1250
M104 S225 ; set extruder temp
M140 S65 ; set bed temp
G28 ; home all
G1 Y1.0 Z0.3 F1000 ; move print head up
M190 S65 ; wait for bed temp
M109 S225 ; wait for extruder temp
G92 E0.0
; initial load
G1 X205.0 E19 F1000
G1 Y1.6
M73 P9 R2
G1 X5.0 E19 F1000
G92 E0.0
; intro line
G1 Y2.0 Z0.2 F1000
M73 P17 R1
G1 X65.0 E9.0 F1000
G1 X105.0 E12.5 F1000
G92 E0.0
G21 ; set units to millimeters
G90 ; use absolute coordinates
M83 ; use relative distances for extrusion
; Filament gcode
M107 ; disable fan
;LAYER_CHANGE
;Z:0.2
;HEIGHT:0.2
;BEFORE_LAYER_CHANGE
G92 E0.0
;0.2
M73 P20 R1
G1 E-6 F7200 ; retract
M73 P22 R1
G1 Z.075 F7800 ; lift Z
G1 Z.2 ; move to next layer (0)
;AFTER_LAYER_CHANGE
;0.2
G1 Z.275 ; lift Z
G1 X11.744 Y12.202 ; move to first skirt point
G1 Z.2 ; restore layer Z
G1 E6.1 F6000 ;  ; unretract
;TYPE:Skirt/Brim
;WIDTH:0.4
G1 F1800
M73 P23 R1
G1 X12.574 Y11.408 E.03411 ; skirt
G1 X13.424 Y10.741 E.03208 ; skirt
G1 X14.425 Y10.105 E.0352 ; skirt
G1 X15.373 Y9.629 E.03152 ; skirt
G1 X16.41 Y9.225 E.03305 ; skirt
G1 X17.483 Y8.925 E.03307 ; skirt
G1 X18.564 Y8.734 E.03259 ; skirt
G1 X19.718 Y8.646 E.03434 ; skirt
G1 X180.273 Y8.646 E4.76708 ; skirt
G1 X182.393 Y8.898 E.0634 ; skirt
M73 P27 R1
G1 X183.462 Y9.183 E.03286 ; skirt
G1 X184.456 Y9.554 E.03151 ; skirt
G1 X185.417 Y10.018 E.03169 ; skirt
G1 X186.336 Y10.574 E.03188 ; skirt
G1 X187.984 Y11.924 E.06325 ; skirt
G1 X188.734 Y12.741 E.03292 ; skirt
G1 X189.357 Y13.563 E.03065 ; skirt
G1 X190.389 Y15.412 E.06285 ; skirt
G1 X191.05 Y17.374 E.06149 ; skirt
G1 X191.241 Y18.379 E.03036 ; skirt
G1 X191.346 Y19.5 E.03343 ; skirt
G1 X191.354 Y180.273 E4.77355 ; skirt
G1 X191.117 Y182.322 E.06125 ; skirt
M73 P31 R1
G1 X190.49 Y184.352 E.06308 ; skirt
G1 X189.539 Y186.164 E.06078 ; skirt
G1 X188.25 Y187.805 E.06193 ; skirt
G1 X187.426 Y188.592 E.03385 ; skirt
G1 X186.508 Y189.308 E.03457 ; skirt
G1 X185.501 Y189.936 E.03524 ; skirt
G1 X184.489 Y190.432 E.03347 ; skirt
G1 X183.379 Y190.843 E.03513 ; skirt
G1 X182.322 Y191.117 E.03244 ; skirt
G1 X181.215 Y191.292 E.03327 ; skirt
G1 X180.087 Y191.357 E.03353 ; skirt
G1 X19.728 Y191.354 E4.76129 ; skirt
G1 X17.666 Y191.115 E.06162 ; skirt
M73 P35 R1
G1 X15.648 Y190.49 E.06271 ; skirt
G1 X13.855 Y189.551 E.0601 ; skirt
G1 X12.195 Y188.25 E.06261 ; skirt
G1 X11.408 Y187.426 E.03385 ; skirt
G1 X10.658 Y186.458 E.03637 ; skirt
G1 X10.033 Y185.444 E.03537 ; skirt
G1 X9.568 Y184.488 E.03155 ; skirt
G1 X9.157 Y183.379 E.03511 ; skirt
G1 X8.883 Y182.322 E.03244 ; skirt
G1 X8.708 Y181.215 E.03327 ; skirt
G1 X8.643 Y180.087 E.03353 ; skirt
G1 X8.646 Y19.728 E4.76129 ; skirt
M73 P36 R1
G1 X8.885 Y17.666 E.06162 ; skirt
M73 P39 R1
G1 X9.502 Y15.667 E.06212 ; skirt
G1 X10.449 Y13.855 E.0607 ; skirt
G1 X11.67 Y12.296 E.05878 ; skirt
M73 P40 R1
G1 E-3.6 F7200 ; retract
;WIPE_START
G1 F6240
G1 X12.574 Y11.408 E-1.38975 ; wipe and retract
G1 X13.213 Y10.906 E-.89025 ; wipe and retract
;WIPE_END
G1 E-.12 F7200 ; retract
G1 Z.275 F7800 ; lift Z
G1 X23.312 Y19.503 ; move to first perimeter point
G1 Z.2 ; restore layer Z
G1 E6.1 F6000 ;  ; unretract
;TYPE:Perimeter
;WIDTH:0.399999
G1 F1800
G1 X23.368 Y20.024 E.01555 ; perimeter
G1 X23.291 Y20.7 E.02019 ; perimeter
G1 X23.086 Y21.348 E.02019 ; perimeter
G1 X22.877 Y21.747 E.01337 ; perimeter
G1 X22.565 Y22.183 E.01593 ; perimeter
G1 X22.034 Y22.685 E.02169 ; perimeter
G1 X21.509 Y23.011 E.01836 ; perimeter
G1 X20.864 Y23.252 E.02044 ; perimeter
G1 X20.126 Y23.363 E.02215 ; perimeter
G1 X19.618 Y23.327 E.01513 ; perimeter
G1 X18.992 Y23.214 E.01888 ; perimeter
G1 X18.335 Y22.928 E.02126 ; perimeter
G1 X17.817 Y22.565 E.01879 ; perimeter
G1 X17.315 Y22.034 E.02169 ; perimeter
G1 X16.989 Y21.509 E.01836 ; perimeter
G1 X16.748 Y20.864 E.02044 ; perimeter
G1 X16.637 Y20.126 E.02215 ; perimeter
G1 X16.673 Y19.618 E.01512 ; perimeter
G1 X16.786 Y18.992 E.01889 ; perimeter
G1 X17.057 Y18.369 E.02017 ; perimeter
G1 X17.337 Y17.962 E.01468 ; perimeter
G1 X17.66 Y17.575 E.01494 ; perimeter
G1 X18.054 Y17.255 E.01508 ; perimeter
G1 X18.491 Y16.989 E.01521 ; perimeter
G1 X19.13 Y16.75 E.02023 ; perimeter
G1 X19.805 Y16.637 E.02034 ; perimeter
G1 X20.385 Y16.673 E.01725 ; perimeter
G1 X21.007 Y16.786 E.01877 ; perimeter
G1 X21.664 Y17.072 E.02126 ; perimeter
G1 X22.183 Y17.435 E.01882 ; perimeter
G1 X22.675 Y17.954 E.02124 ; perimeter
G1 X23.011 Y18.491 E.01881 ; perimeter
G1 X23.252 Y19.136 E.02044 ; perimeter
G1 X23.296 Y19.384 E.00748 ; perimeter
M73 P41 R1
G1 X23.685 Y19.535 F7800 ; move to first perimeter point
G1 F1800
G1 X23.726 Y20.038 E.01499 ; perimeter
G1 X23.642 Y20.774 E.022 ; perimeter
G1 X23.483 Y21.276 E.01562 ; perimeter
G1 X23.259 Y21.808 E.01716 ; perimeter
G1 X22.967 Y22.247 E.01563 ; perimeter
G1 X22.543 Y22.695 E.01834 ; perimeter
G1 X22.094 Y23.078 E.01752 ; perimeter
G1 X21.658 Y23.336 E.01503 ; perimeter
G1 X20.958 Y23.598 E.0222 ; perimeter
G1 X20.465 Y23.685 E.01486 ; perimeter
G1 X19.962 Y23.726 E.01498 ; perimeter
G1 X19.364 Y23.657 E.01788 ; perimeter
G1 X18.874 Y23.552 E.01487 ; perimeter
G1 X18.169 Y23.245 E.02284 ; perimeter
G1 X17.749 Y22.964 E.01498 ; perimeter
G1 X17.305 Y22.543 E.01819 ; perimeter
G1 X16.922 Y22.094 E.01752 ; perimeter
G1 X16.664 Y21.658 E.01503 ; perimeter
G1 X16.402 Y20.958 E.0222 ; perimeter
G1 X16.28 Y20.139 E.02459 ; perimeter
G1 X16.343 Y19.364 E.02309 ; perimeter
G1 X16.448 Y18.874 E.01487 ; perimeter
G1 X16.744 Y18.195 E.02199 ; perimeter
G1 X17.043 Y17.759 E.0157 ; perimeter
G1 X17.411 Y17.318 E.01706 ; perimeter
G1 X17.901 Y16.926 E.01863 ; perimeter
G1 X18.342 Y16.664 E.01523 ; perimeter
G1 X19.037 Y16.404 E.02203 ; perimeter
G1 X19.394 Y16.344 E.01075 ; perimeter
G1 X20.047 Y16.274 E.01951 ; perimeter
G1 X20.635 Y16.342 E.01757 ; perimeter
G1 X21.125 Y16.448 E.01488 ; perimeter
G1 X21.831 Y16.755 E.02284 ; perimeter
G1 X22.256 Y17.039 E.0152 ; perimeter
G1 X22.688 Y17.449 E.01768 ; perimeter
G1 X23.074 Y17.901 E.01765 ; perimeter
G1 X23.336 Y18.342 E.01523 ; perimeter
G1 X23.598 Y19.042 E.0222 ; perimeter
G1 X23.664 Y19.417 E.0113 ; perimeter
G1 X24.037 Y19.473 F7800 ; move to first perimeter point
G1 F1800
G1 X24.084 Y20.052 E.01725 ; perimeter
G1 X23.992 Y20.849 E.02381 ; perimeter
G1 X23.824 Y21.383 E.01663 ; perimeter
G1 X23.572 Y21.981 E.01927 ; perimeter
G1 X23.249 Y22.466 E.01728 ; perimeter
G1 X22.788 Y22.954 E.01995 ; perimeter
G1 X22.298 Y23.371 E.01908 ; perimeter
G1 X21.808 Y23.662 E.01692 ; perimeter
G1 X21.052 Y23.944 E.02396 ; perimeter
G1 X20.527 Y24.037 E.01584 ; perimeter
G1 X19.948 Y24.084 E.01725 ; perimeter
G1 X19.323 Y24.012 E.01867 ; perimeter
G1 X18.756 Y23.89 E.01723 ; perimeter
G1 X18.002 Y23.562 E.02441 ; perimeter
G1 X17.53 Y23.246 E.01686 ; perimeter
G1 X17.046 Y22.788 E.0198 ; perimeter
G1 X16.629 Y22.298 E.01908 ; perimeter
G1 X16.338 Y21.808 E.01692 ; perimeter
G1 X16.056 Y21.052 E.02396 ; perimeter
G1 X15.924 Y20.151 E.02704 ; perimeter
G1 X15.988 Y19.323 E.02467 ; perimeter
G1 X16.11 Y18.756 E.01723 ; perimeter
G1 X16.43 Y18.021 E.0238 ; perimeter
G1 X16.884 Y17.36 E.02381 ; perimeter
G1 X17.291 Y16.95 E.01716 ; perimeter
M73 P42 R1
G1 X17.696 Y16.633 E.01525 ; perimeter
G1 X18.192 Y16.338 E.01713 ; perimeter
G1 X18.944 Y16.057 E.02384 ; perimeter
G1 X19.576 Y15.952 E.01902 ; perimeter
G1 X20.064 Y15.917 E.01452 ; perimeter
G1 X20.676 Y15.987 E.01831 ; perimeter
G1 X21.243 Y16.11 E.01722 ; perimeter
G1 X21.997 Y16.438 E.02442 ; perimeter
G1 X22.476 Y16.758 E.0171 ; perimeter
G1 X22.947 Y17.203 E.01925 ; perimeter
G1 X23.367 Y17.696 E.01921 ; perimeter
G1 X23.662 Y18.192 E.01713 ; perimeter
G1 X23.944 Y18.948 E.02396 ; perimeter
G1 X24.016 Y19.355 E.01228 ; perimeter
G1 X24.388 Y19.411 F7800 ; move to first perimeter point
G1 F1800
G1 X24.441 Y20.066 E.01951 ; perimeter
G1 X24.343 Y20.923 E.02562 ; perimeter
G1 X24.084 Y21.746 E.02561 ; perimeter
G1 X23.749 Y22.372 E.02109 ; perimeter
G1 X23.36 Y22.905 E.0196 ; perimeter
G1 X22.897 Y23.342 E.01889 ; perimeter
G1 X22.503 Y23.664 E.0151 ; perimeter
G1 X21.958 Y23.987 E.01881 ; perimeter
G1 X21.147 Y24.29 E.02572 ; perimeter
G1 X20.589 Y24.388 E.01681 ; perimeter
G1 X19.934 Y24.441 E.01951 ; perimeter
G1 X19.283 Y24.367 E.01947 ; perimeter
G1 X18.638 Y24.228 E.01958 ; perimeter
G1 X18.069 Y23.98 E.01842 ; perimeter
G1 X17.62 Y23.744 E.01508 ; perimeter
G1 X17.095 Y23.36 E.01932 ; perimeter
G1 X16.658 Y22.897 E.01889 ; perimeter
G1 X16.336 Y22.503 E.0151 ; perimeter
G1 X16.013 Y21.958 E.01881 ; perimeter
G1 X15.71 Y21.147 E.02572 ; perimeter
G1 X15.567 Y20.164 E.02948 ; perimeter
G1 X15.633 Y19.283 E.02625 ; perimeter
G1 X15.772 Y18.638 E.01958 ; perimeter
G1 X16.116 Y17.847 E.02562 ; perimeter
G1 X16.605 Y17.136 E.02561 ; perimeter
G1 X17.057 Y16.68 E.01906 ; perimeter
G1 X17.491 Y16.341 E.01636 ; perimeter
G1 X18.042 Y16.013 E.01904 ; perimeter
G1 X18.851 Y15.711 E.02565 ; perimeter
G1 X19.517 Y15.599 E.02005 ; perimeter
G1 X20.08 Y15.559 E.01676 ; perimeter
G1 X20.717 Y15.633 E.01906 ; perimeter
G1 X21.361 Y15.772 E.01956 ; perimeter
G1 X21.921 Y16.015 E.01811 ; perimeter
G1 X22.389 Y16.262 E.01571 ; perimeter
G1 X22.905 Y16.64 E.01901 ; perimeter
G1 X23.325 Y17.082 E.0181 ; perimeter
G1 X23.659 Y17.491 E.01567 ; perimeter
G1 X23.987 Y18.042 E.01903 ; perimeter
G1 X24.29 Y18.853 E.02572 ; perimeter
G1 X24.368 Y19.293 E.01325 ; perimeter
G1 X24.74 Y19.349 F7800 ; move to first perimeter point
;TYPE:External perimeter
G1 F1800
G1 X24.799 Y20.08 E.02178 ; perimeter
G1 X24.694 Y20.998 E.02743 ; perimeter
G1 X24.505 Y21.598 E.01867 ; perimeter
G1 X24.288 Y22.143 E.01744 ; perimeter
G1 X23.942 Y22.739 E.02046 ; perimeter
M73 P43 R1
G1 X23.625 Y23.146 E.01532 ; perimeter
G1 X23.143 Y23.602 E.0197 ; perimeter
G1 X22.708 Y23.956 E.01666 ; perimeter
G1 X22.108 Y24.312 E.0207 ; perimeter
G1 X21.241 Y24.636 E.02748 ; perimeter
G1 X20.651 Y24.74 E.01779 ; perimeter
G1 X19.92 Y24.799 E.02178 ; perimeter
G1 X19.242 Y24.722 E.02026 ; perimeter
G1 X18.52 Y24.566 E.02193 ; perimeter
G1 X17.669 Y24.196 E.02755 ; perimeter
G1 X17.261 Y23.942 E.01428 ; perimeter
G1 X16.854 Y23.625 E.01532 ; perimeter
G1 X16.398 Y23.143 E.0197 ; perimeter
G1 X16.044 Y22.708 E.01666 ; perimeter
G1 X15.688 Y22.108 E.0207 ; perimeter
G1 X15.364 Y21.241 E.02748 ; perimeter
G1 X15.29 Y20.822 E.01265 ; perimeter
G1 X15.21 Y20.177 E.01929 ; perimeter
G1 X15.278 Y19.242 E.02783 ; perimeter
G1 X15.434 Y18.52 E.02193 ; perimeter
G1 X15.803 Y17.673 E.02743 ; perimeter
G1 X16.326 Y16.912 E.02742 ; perimeter
G1 X16.87 Y16.37 E.02281 ; perimeter
G1 X17.286 Y16.049 E.0156 ; perimeter
G1 X17.892 Y15.688 E.02094 ; perimeter
G1 X18.758 Y15.364 E.02745 ; perimeter
G1 X19.458 Y15.247 E.02107 ; perimeter
G1 X20.096 Y15.201 E.01899 ; perimeter
G1 X20.758 Y15.278 E.0198 ; perimeter
G1 X21.479 Y15.434 E.02189 ; perimeter
G1 X22.063 Y15.688 E.0189 ; perimeter
G1 X22.578 Y15.959 E.01729 ; perimeter
G1 X23.146 Y16.375 E.02091 ; perimeter
G1 X23.584 Y16.837 E.01889 ; perimeter
G1 X23.951 Y17.286 E.01724 ; perimeter
G1 X24.312 Y17.892 E.02094 ; perimeter
G1 X24.636 Y18.759 E.02748 ; perimeter
G1 X24.719 Y19.231 E.01423 ; perimeter
G1 X24.166 Y19.806 F7800 ; move inwards before travel
G1 E-3.6 F7200 ; retract
;WIPE_START
G1 F6240
G1 X24.799 Y20.08 E-.93498 ; wipe and retract
G1 X24.694 Y20.998 E-1.01281 ; wipe and retract
G1 X24.603 Y21.287 E-.33221 ; wipe and retract
;WIPE_END
G1 E-.12 F7200 ; retract
G1 Z.275 F7800 ; lift Z
G1 X22.921 Y18.557 ; move to first infill point
G1 Z.2 ; restore layer Z
G1 E6.1 F6000 ;  ; unretract
;TYPE:Solid infill
;WIDTH:0.405995
G1 F1800
M73 P44 R1
G1 X21.985 Y17.62 E.03998 ; infill
G1 X21.779 Y17.459 E.00789 ; infill
G1 X21.539 Y17.309 E.00854 ; infill
G1 X20.881 Y17.03 E.02159 ; infill
G1 X22.954 Y19.103 E.08852 ; infill
G1 X22.993 Y19.207 E.00336 ; infill
G1 X23.089 Y19.751 E.01668 ; infill
G1 X20.266 Y16.928 E.12051 ; infill
G1 X19.829 Y16.905 E.01322 ; infill
G1 X19.743 Y16.919 E.00262 ; infill
G1 X23.073 Y20.249 E.14215 ; infill
G1 X23.01 Y20.699 E.01374 ; infill
G1 X19.303 Y16.993 E.15825 ; infill
G1 X19.199 Y17.01 E.00319 ; infill
G1 X18.914 Y17.117 E.00919 ; infill
G1 X22.887 Y21.09 E.16963 ; infill
G1 X22.837 Y21.249 E.00503 ; infill
G1 X22.737 Y21.453 E.00687 ; infill
G1 X18.548 Y17.264 E.17887 ; infill
G1 X18.229 Y17.459 E.01127 ; infill
G1 X22.544 Y21.774 E.18421 ; infill
G1 X22.311 Y22.054 E.01101 ; infill
M73 P45 R1
G1 X17.942 Y17.685 E.18653 ; infill
G1 X17.846 Y17.768 E.00383 ; infill
G1 X17.685 Y17.942 E.00714 ; infill
G1 X22.047 Y22.304 E.18624 ; infill
G1 X21.771 Y22.541 E.01099 ; infill
G1 X17.471 Y18.241 E.18361 ; infill
G1 X17.269 Y18.553 E.01121 ; infill
G1 X21.453 Y22.736 E.1786 ; infill
G1 X21.086 Y22.883 E.01192 ; infill
G1 X17.114 Y18.911 E.16961 ; infill
G1 X17.04 Y19.08 E.00559 ; infill
G1 X16.983 Y19.293 E.00666 ; infill
G1 X20.699 Y23.009 E.15866 ; infill
G1 X20.262 Y23.086 E.01338 ; infill
M73 P46 R1
G1 X16.927 Y19.751 E.14239 ; infill
G1 X16.9 Y19.987 E.00715 ; infill
G1 X16.911 Y20.249 E.00792 ; infill
G1 X19.733 Y23.071 E.12049 ; infill
G1 X19.315 Y23.023 E.01271 ; infill
G1 X19.12 Y22.971 E.0061 ; infill
G1 X17.046 Y20.897 E.08854 ; infill
G1 X17.233 Y21.396 E.0161 ; infill
G1 X17.37 Y21.645 E.00858 ; infill
G1 X17.524 Y21.864 E.00807 ; infill
G1 X18.533 Y22.897 E.0436 ; infill
G1 E-3.6 F7200 ; retract
;WIPE_START
G1 F6240
G1 X17.524 Y21.864 E-1.58302 ; wipe and retract
G1 X17.37 Y21.645 E-.29311 ; wipe and retract
G1 X17.233 Y21.396 E-.31157 ; wipe and retract
G1 X17.203 Y21.317 E-.0923 ; wipe and retract
;WIPE_END
G1 E-.12 F7200 ; retract
G1 Z.275 F7800 ; lift Z
G1 X23.312 Y179.503 ; move to first perimeter point
G1 Z.2 ; restore layer Z
M73 P47 R1
G1 E6.1 F6000 ;  ; unretract
;TYPE:Perimeter
;WIDTH:0.399999
G1 F1800
G1 X23.368 Y180.024 E.01555 ; perimeter
G1 X23.291 Y180.7 E.02019 ; perimeter
G1 X23.086 Y181.348 E.02019 ; perimeter
G1 X22.877 Y181.747 E.01337 ; perimeter
G1 X22.565 Y182.183 E.01593 ; perimeter
G1 X22.034 Y182.685 E.02169 ; perimeter
G1 X21.509 Y183.011 E.01836 ; perimeter
G1 X20.864 Y183.252 E.02044 ; perimeter
G1 X20.126 Y183.363 E.02215 ; perimeter
G1 X19.618 Y183.327 E.01513 ; perimeter
G1 X18.992 Y183.214 E.01888 ; perimeter
G1 X18.335 Y182.928 E.02126 ; perimeter
G1 X17.817 Y182.565 E.01879 ; perimeter
G1 X17.315 Y182.034 E.02169 ; perimeter
G1 X16.989 Y181.509 E.01836 ; perimeter
G1 X16.748 Y180.864 E.02044 ; perimeter
G1 X16.637 Y180.126 E.02215 ; perimeter
G1 X16.673 Y179.618 E.01512 ; perimeter
M73 P48 R1
G1 X16.786 Y178.992 E.01889 ; perimeter
G1 X17.057 Y178.369 E.02017 ; perimeter
G1 X17.337 Y177.962 E.01468 ; perimeter
G1 X17.66 Y177.575 E.01494 ; perimeter
G1 X18.054 Y177.255 E.01508 ; perimeter
G1 X18.491 Y176.989 E.01521 ; perimeter
G1 X19.13 Y176.75 E.02023 ; perimeter
G1 X19.805 Y176.637 E.02034 ; perimeter
G1 X20.385 Y176.673 E.01725 ; perimeter
G1 X21.007 Y176.786 E.01877 ; perimeter
G1 X21.664 Y177.072 E.02126 ; perimeter
G1 X22.183 Y177.435 E.01882 ; perimeter
G1 X22.675 Y177.954 E.02124 ; perimeter
G1 X23.011 Y178.491 E.01881 ; perimeter
G1 X23.252 Y179.136 E.02044 ; perimeter
G1 X23.296 Y179.384 E.00748 ; perimeter
G1 X23.685 Y179.535 F7800 ; move to first perimeter point
G1 F1800
G1 X23.726 Y180.038 E.01499 ; perimeter
G1 X23.642 Y180.774 E.022 ; perimeter
G1 X23.483 Y181.276 E.01562 ; perimeter
G1 X23.259 Y181.808 E.01716 ; perimeter
G1 X22.967 Y182.247 E.01563 ; perimeter
G1 X22.543 Y182.695 E.01834 ; perimeter
G1 X22.094 Y183.078 E.01752 ; perimeter
G1 X21.658 Y183.336 E.01503 ; perimeter
G1 X20.958 Y183.598 E.0222 ; perimeter
G1 X20.465 Y183.685 E.01486 ; perimeter
G1 X19.962 Y183.726 E.01498 ; perimeter
